icons/svg/bell-sleep.svg

﻿<?xml version="1.0" encoding="utf-8"?>
<!DOCTYPE svg PUBLIC "-//W3C//DTD SVG 1.1//EN" "http://www.w3.org/Graphics/SVG/1.1/DTD/svg11.dtd">
<svg xmlns="http://www.w3.org/2000/svg" xmlns:xlink="http://www.w3.org/1999/xlink" version="1.1" baseProfile="full" width="24" height="24" viewBox="0 0 24.00 24.00" enable-background="new 0 0 24.00 24.00" xml:space="preserve">
	<path fill="#000000" fill-opacity="1" stroke-width="0.2" stroke-linejoin="round" d="M 13.9994,9.79817L 11.1994,13.1982L 13.9994,13.1982L 13.9994,14.9982L 8.99939,14.9982L 8.99939,13.1982L 11.7994,9.79817L 8.99939,9.79817L 8.99939,7.99817L 13.9994,7.99817M 17.9994,15.9982L 17.9994,10.4982C 17.9994,7.42517 15.8644,4.85717 12.9994,4.17917L 12.9994,3.49817C 12.9994,2.67016 12.3274,1.99817 11.4994,1.99817C 10.6714,1.99817 9.99939,2.67016 9.99939,3.49817L 9.99939,4.17917C 7.1344,4.85717 4.99939,7.42517 4.99939,10.4982L 4.99939,15.9982L 2.99939,17.9982L 2.99939,18.9982L 19.9994,18.9982L 19.9994,17.9982M 11.4994,21.9982C 12.6044,21.9982 13.4994,21.1022 13.4994,19.9982L 9.49939,19.9982C 9.49939,21.1022 10.3954,21.9982 11.4994,21.9982 Z "/>
</svg>

<svg xmlns="http://www.w3.org/2000/svg" version="1.1" baseProfile="full" width="24" height="24" viewBox="0 0 24.00 24.00" xml:space="preserve"><path fill="#000" fill-opacity="1" stroke-width=".2" stroke-linejoin="round" d="M14 9.798l-2.8 3.4H14v1.8H9v-1.8l2.8-3.4H9v-1.8h5m4 8v-5.5c0-3.073-2.136-5.64-5-6.32V3.5c0-.828-.673-1.5-1.5-1.5-.83 0-1.5.672-1.5 1.5v.68c-2.866.68-5 3.247-5 6.32v5.5l-2 2v1h17v-1m-8.5 4c1.104 0 2-.896 2-2h-4c0 1.104.895 2 2 2z"/></svg>
